X: 11
T: Fisher's
R: hornpipe
M: 4/4
L: 1/8
K: Dmaj
(3gfe|dA FA GBAG|FEFD GBAG|FEFD GFGE|FEFD E2 (3ABc|
dAFA GBAG|FEFD GBAG|FA df gecA|d2 dc d2 (3gfe|
dA (3FGA GBAG|(3FFF (3AGF GBAG|FFFD GGGE|FFFA E2 (3ABc|
dcdA GBAG|FDDA GBAG|(3FGA df (3gfe dc|(3dAF (3DFA d2||
(3Bcd|ecAc egfe|fdAd fagf|ecAc ecgf|(3efe (3dcB A2 (3FGA|
BGDG BdcB|AFDF AD (3FGA|(3Bcd cB (3ABA (3GFE|(3DDD (3DDD D2 (3Bcd|
ecAc eege|fdAd ffaf|eeef gefd|(3efe (3dcB (3ABA (3GFE|
BGDG BB (3dcB|AFDF AD (3FGA|(3Bcd cB (3ABA (3GFE|(3DDD (3DDD D4||


Tune 872	Setting 872

